X:1
T:The Wreck of the Virginian No. 3
M:4/4
L:1/4
K:C
 e e e e| c2 A A/2A/2| Gc/2-e/2 g e| d3 d| e/2e/2 e/2e/2 e d| c2 A2|\
 G/2G/2 c/2e/2 g B| c3 z|

